svg/set/M12/WM.svg

<?xml version="1.0" encoding="UTF-8" standalone="no"?>
<svg
   version="1.1"
   width="600"
   height="320.58008"
   id="svg1"
   xmlns="http://www.w3.org/2000/svg"
   xmlns:svg="http://www.w3.org/2000/svg">
  <defs
     id="defs1" />
  <path
     d="M 38.724609,0 C 29.820609,21.372 20.207922,42.563927 13.919922,64.919922 9.9839219,78.983922 5.3406875,93.047776 3.8046875,107.67578 2.7726875,116.85578 1.452,126.00053 0,135.14453 v 57.08399 c 1.92,7.692 3.0969062,15.51556 4.1289062,23.35156 1.824,13.5 6.2267968,26.38733 9.4667968,39.61133 7.356,22.25999 15.228453,44.53266 26.064453,65.38867 H 560.48438 c 8.11199,-16.404 14.9997,-33.41979 21.0957,-50.67578 3.84,-13.452 9.04814,-26.58 11.24414,-40.5 3.612,-14.808 4.69178,-30.14453 7.17578,-45.14453 v -54.64844 c -2.76,-12.384 -3.93525,-25.03118 -7.03125,-37.367189 C 587.38875,60.000141 573.51592,30.144 561.41992,0 Z m 21.810547,18.863281 c 3.201,0.01656 6.401891,0.09627 9.587891,0.07227 157.728003,-0.048 315.421283,0.0011 473.113283,-0.04687 1.632,0.04801 3.27562,0.144234 5.01562,0.240234 4.404,10.776 9.37177,21.323021 13.25977,32.291016 3.516,12.048 8.67653,23.676531 10.64453,36.144531 2.904,10.404 4.25939,21.144518 6.27539,31.728518 1.78848,12.984 1.45204,26.1114 2.35156,39.19141 -0.984,16.824 -0.19103,33.83954 -3.70703,50.43554 -4.596,32.208 -16.50053,62.72378 -28.64453,92.67578 -165.612,0.096 -331.30792,0.096 -496.919921,0 -2.904,-7.368 -5.808,-14.67554 -9,-21.93554 -4.872,-14.77199 -11.435844,-29.11238 -14.339844,-44.48438 -2.484,-11.112 -5.303859,-22.1745 -6.755859,-33.5625 -1.72848,-16.692 -1.728184,-33.56439 -1.595704,-50.40039 0.144,-16.632 0.996,-33.32481 4.5,-49.63281 3,-16.788008 8.771938,-32.951784 13.835938,-49.175784 3.42,-11.388005 9.695016,-21.744506 12.791016,-33.228516 3.186,-0.282235 6.38689,-0.329061 9.58789,-0.3125 z m 8.316406,19.056641 c -1.68,0.048 -3.371624,0.241395 -5.015624,0.421875 -6.696001,16.319995 -12.467547,33.095625 -17.435547,50.015625 -3.324,16.788008 -6.936438,33.610658 -8.148438,50.722658 -0.38112,14.904 -0.514062,29.85772 0.08594,44.76172 1.176,10.83601 2.484531,21.75525 4.644531,32.53125 1.836,6.84 2.386719,14.11095 5.386719,20.62695 8.916,-8.532 14.160453,-19.96748 18.564453,-31.27148 8.304,-19.164 13.224609,-39.6 22.224609,-58.5 1.404,-2.808 4.127703,-5.6638 7.595703,-5.19532 5.340002,0.56399 10.307982,2.95214 15.083982,5.24414 2.628,1.41599 6.04824,3.14281 6.24023,6.4668 1.12801,6.852 -3.9354,12.33594 -6.1914,18.33594 -3.18,8.34 -7.82467,16.03213 -9.88867,24.74414 -2.340001,8.72399 -5.951251,17.72429 -4.031251,26.9043 1.224,6.28799 7.967321,8.40007 12.611321,11.58007 0.41953,4.83599 0.41923,9.70921 0.0957,14.53321 -10.176,-1.824 -20.531859,-1.82521 -30.755859,-1.03321 -8.856,1.22399 -17.952516,2.82083 -25.728516,7.54883 2.664,8.772 6.048141,17.30258 9.744141,25.64258 4.74,1.35553 9.851781,0.46817 14.675781,0.66016 151.260003,-0.048 302.485263,-0.048 453.697263,0 1.692,-0.144 4.12772,0.0487 4.51172,-2.11133 5.616,-14.33999 11.616,-28.6434 15,-43.69141 1.872,-7.212 3.98353,-14.24474 5.51953,-21.46875 1.464,-6.792 1.69261,-13.72724 2.72461,-20.53125 0.936,-6.83999 2.01592,-13.68006 1.91992,-20.66406 h -0.002 c -0.048,-16.5 0.83955,-33.19366 -2.06445,-49.59766 -1.08,-11.904 -3.93571,-23.53185 -6.09571,-35.255856 -3.42,-12.276 -7.82459,-24.178563 -11.80859,-36.226563 -1.824,-5.16 -3.46763,-10.501656 -6.51563,-15.097656 -155.532,-0.192 -311.06453,0.0483 -466.644526,-0.0957 z M 484.03125,54.144531 c 0,0 10.07941,4.25961 15.19141,9.59961 4.032,4.224 13.2132,9.192 16.0332,12 2.76,2.772 10.58437,12.804609 15.98437,19.224609 0,0 1.2116,9.98339 -0.41992,28.77539 0,0 -28.368,27.98333 -36,39.61133 0,0 10.4046,1.17657 14.8086,0.37305 4.404,-0.792 11.6277,-2.76068 19.5957,-2.38868 0,0 5.19561,-7.96693 9.59961,-13.21093 l 8.01562,9.22851 c 0,0 -15.60022,27.19171 -16.82422,43.5957 0,0 -12.37071,-1.22421 -14.38671,1.17579 0,0 0.37095,-6.75615 -0.37305,-11.16016 0,0 -18.80402,-1.59641 -34.41602,-0.41992 -15.6,1.176 -33.22889,1.59659 -49.21289,2.80859 0,0 10.40422,-9.61251 16.82422,-15.22851 6.372,-5.58 12.372,-12.00038 18,-15.98438 5.58,-3.984 8.77269,-6.80437 12.80469,-9.98437 3.984,-3.192 15.9828,-17.62666 25.9668,-25.22266 0,0 1.59774,-8.38934 -0.80274,-16.77734 -2.388,-8.436 -8.80897,-12.431629 -18.79297,-20.015629 -9.984,-7.596 -23.20695,-7.596015 -29.62695,-4.416015 0,0 -3.56534,13.22362 1.22266,20.015624 -0.004,0.002 -10.78935,6.38505 -24.80274,17.20703 0,0 0.80487,-12.41933 2.40039,-21.61133 1.632,-9.180001 0.41992,-13.210934 0.41992,-13.210934 0,0 3.59835,-5.581062 10.40235,-10.789062 6.792,-5.196 12.61304,-8.387328 15.37304,-9.611328 2.808,-1.212 8.62763,-7.211985 23.01563,-13.583985 z m -248.48437,0.791016 c 5.95199,0.41952 11.43584,2.773344 17.33984,3.277344 8.436,0.80448 16.93119,0.803589 25.36719,0.287109 4.872,-0.192 9.32443,-2.387703 14.14843,-3.095703 4.176,1.968 7.88432,4.823484 11.82032,7.271484 -0.51648,6.228 -3.19352,12.131922 -2.35352,18.419922 1.128,9.42 3.09661,18.888745 7.22461,27.468747 6.372,12.744 14.06347,24.88732 19.35547,38.19532 7.032,16.884 15.1929,33.33714 20.6289,50.86914 2.676,8.244 3.09615,17.90368 9.74415,24.17968 6.096,5.35201 13.12876,9.56446 19.88476,14.06446 2.808,1.96801 5.85434,4.07947 7.40235,7.35547 -0.41952,4.64401 -2.80763,8.72303 -5.01563,12.70703 -10.692,-1.176 -20.7717,-5.43571 -31.5957,-6.09571 -16.68,-2.244 -33.98332,-2.38793 -50.19532,2.58008 -5.868,1.788 -10.8369,5.53208 -16.1289,8.58008 -4.356,-4.452 -8.7711,-8.85592 -12.3711,-13.91992 8.148,-8.064 19.35518,-13.73956 23.95118,-24.85156 3.372,-9.42 -1.93186,-18.83991 -5.25586,-27.50391 -6.468,-17.868 -16.404,-34.17563 -24,-51.51563 -1.548,-2.724 -2.67578,-6.14482 -5.67578,-7.54882 -4.116,0.552 -8.00452,4.2612 -12.22852,2.5332 -4.356,-2.82 -7.59622,-7.03247 -10.82422,-10.98047 -2.676,-3.084 -3.98303,-7.58468 -2.20703,-11.38867 2.484,-3.84 6.27464,-6.6123 8.80664,-10.4043 3.24,-4.72799 6.43208,-9.564295 8.58008,-14.904295 1.08,-2.388 -0.41979,-4.871094 -2.19531,-6.371094 -7.176,-5.82 -16.07978,-8.77164 -23.67579,-13.93164 3.04801,-5.196 6.37275,-10.213344 9.46876,-15.277344 z M 416.85547,56.4375 c -0.51552,16.92 0.19245,33.886636 -0.93555,50.80664 -0.18048,16.548 0.75463,38.35239 0.51367,54.90039 0.24,2.904 -1.72732,6.64866 -3.61132,8.38867 -6.696,5.80799 -12.324,10.40331 -18,17.19532 -1.356,1.78799 -7.16369,6.70852 -9.17969,7.64453 1.5,-30.564 2.19557,-67.08054 0.37109,-97.644534 -0.048,-1.632 1.03299,-4.871391 -0.79101,-4.775391 -7.32,-0.61248 -18.70875,1.080402 -25.96875,0.419922 -0.288,-3.372 -0.61116,-8.244906 -0.43164,-11.628906 6.192,-4.5 17.35223,-7.774797 24.24023,-10.966797 11.292,-4.68 22.17697,-10.451844 33.79297,-14.339844 z m -312.4668,3.402344 c 6.32475,0.06188 12.6426,1.133656 18.9336,1.097656 13.644,0.37152 27.28876,-0.04928 40.88476,0.886719 1.116,9.288 6.04777,17.484984 11.75977,24.708984 10.224,13.776007 16.96906,29.952467 28.78906,42.564457 1.632,1.452 3.32406,3.37079 5.66406,3.46679 3.804,-1.27201 6.98363,-4.12794 11.01563,-4.83593 4.692,0.384 7.6434,4.73993 10.6914,7.83593 3.048,3.744 7.72853,7.77691 6.14453,13.12891 -1.884,5.34001 -7.07993,9.03548 -7.83593,14.85547 -1.08,9.32401 -0.41982,18.98498 3.0957,27.79297 5.904,15.24 12.04784,30.65879 14.33984,46.96679 -4.968,2.724 -10.54709,4.36801 -15.37109,7.5 -10.92,7.08 -19.45252,17.25571 -25.72852,28.59571 -5.676,-2.484 -11.35178,-5.112 -16.17578,-9 -0.936,-2.064 -0.24106,-4.49932 -0.28906,-6.69532 1.272,-14.448 -1.6803,-28.88331 -5.9043,-42.61132 -4.164,-13.224 -7.87168,-26.67595 -13.67968,-39.33594 -7.416,-17.532 -15.51557,-35.14823 -27.85157,-49.82422 -2.532,-2.208 -5.56739,-7.12777 -9.27539,-4.25977 -4.596,4.212 -4.64528,11.71048 -9.61328,15.64649 -6.372,1.78799 -11.99954,-2.48334 -17.43554,-5.11133 -3.744,-1.96801 -9.192458,-4.58302 -8.064458,-9.79101 2.579998,-10.452 8.255918,-19.92187 10.919918,-30.42188 0.192,-3.276 1.69328,-8.530422 -2.38672,-9.982422 -5.53199,-2.772 -12.001198,-2.905203 -17.533198,-5.533203 -2.292,-1.176 -2.48325,-4.126875 -1.03125,-6.046875 2.772,-4.032 5.627328,-8.292141 9.611328,-11.244141 2.109,-0.282 4.21792,-0.37414 6.32617,-0.353515 z"
     id="path1" />
</svg>

<?xml version="1.0" encoding="UTF-8" standalone="no"?>
<svg xmlns="http://www.w3.org/2000/svg" version="1.1" width="600" height="320.57999">
 <path
     d="M 38.724609 0 C 29.820609 21.372 20.207922 42.563927 13.919922 64.919922 C 9.9839219 78.983922 5.3406875 93.047776 3.8046875 107.67578 C 2.7726875 116.85578 1.452 126.00053 0 135.14453 L 0 192.22852 C 1.92 199.92052 3.0969062 207.74408 4.1289062 215.58008 C 5.9529062 229.08008 10.355703 241.96741 13.595703 255.19141 C 20.951703 277.4514 28.824156 299.72407 39.660156 320.58008 L 560.48438 320.58008 C 568.59637 304.17608 575.48408 287.16029 581.58008 269.9043 C 585.42008 256.4523 590.62822 243.3243 592.82422 229.4043 C 596.43622 214.5963 597.516 199.25977 600 184.25977 L 600 129.61133 C 597.24 117.22733 596.06475 104.58015 592.96875 92.244141 C 587.38875 60.000141 573.51592 30.144 561.41992 0 L 38.724609 0 z M 60.535156 18.863281 C 63.736156 18.879842 66.937047 18.959547 70.123047 18.935547 C 227.85105 18.887547 385.54433 18.936672 543.23633 18.888672 C 544.86833 18.936682 546.51195 19.032906 548.25195 19.128906 C 552.65595 29.904906 557.62372 40.451927 561.51172 51.419922 C 565.02772 63.467922 570.18825 75.096453 572.15625 87.564453 C 575.06025 97.968453 576.41564 108.70897 578.43164 119.29297 C 580.22012 132.27697 579.88368 145.40437 580.7832 158.48438 C 579.7992 175.30838 580.59217 192.32392 577.07617 208.91992 C 572.48017 241.12792 560.57564 271.6437 548.43164 301.5957 C 382.81964 301.6917 217.12372 301.6917 51.511719 301.5957 C 48.607719 294.2277 45.703719 286.92016 42.511719 279.66016 C 37.639719 264.88817 31.075875 250.54778 28.171875 235.17578 C 25.687875 224.06378 22.868016 213.00128 21.416016 201.61328 C 19.687536 184.92128 19.687832 168.04889 19.820312 151.21289 C 19.964312 134.58089 20.816312 117.88808 24.320312 101.58008 C 27.320312 84.792073 33.09225 68.628297 38.15625 52.404297 C 41.57625 41.016292 47.851266 30.659791 50.947266 19.175781 C 54.133266 18.893546 57.334156 18.84672 60.535156 18.863281 z M 68.851562 37.919922 C 67.171562 37.967922 65.479938 38.161317 63.835938 38.341797 C 57.139937 54.661792 51.368391 71.437422 46.400391 88.357422 C 43.076391 105.14543 39.463953 121.96808 38.251953 139.08008 C 37.870833 153.98408 37.737891 168.9378 38.337891 183.8418 C 39.513891 194.67781 40.822422 205.59705 42.982422 216.37305 C 44.818422 223.21305 45.369141 230.484 48.369141 237 C 57.285141 228.468 62.529594 217.03252 66.933594 205.72852 C 75.237594 186.56452 80.158203 166.12852 89.158203 147.22852 C 90.562203 144.42052 93.285906 141.56472 96.753906 142.0332 C 102.09391 142.59719 107.06189 144.98534 111.83789 147.27734 C 114.46589 148.69333 117.88613 150.42015 118.07812 153.74414 C 119.20613 160.59614 114.14272 166.08008 111.88672 172.08008 C 108.70672 180.42008 104.06205 188.11221 101.99805 196.82422 C 99.658047 205.54821 96.046797 214.54851 97.966797 223.72852 C 99.190797 230.01651 105.93412 232.12859 110.57812 235.30859 C 110.99765 240.14458 110.99735 245.0178 110.67383 249.8418 C 100.49783 248.0178 90.141969 248.01659 79.917969 248.80859 C 71.061969 250.03258 61.965453 251.62942 54.189453 256.35742 C 56.853453 265.12942 60.237594 273.66 63.933594 282 C 68.673594 283.35553 73.785375 282.46817 78.609375 282.66016 C 229.86938 282.61216 381.09464 282.61216 532.30664 282.66016 C 533.99864 282.51616 536.43436 282.70884 536.81836 280.54883 C 542.43436 266.20884 548.43436 251.90543 551.81836 236.85742 C 553.69036 229.64542 555.80189 222.61268 557.33789 215.38867 C 558.80189 208.59667 559.0305 201.66143 560.0625 194.85742 C 560.9985 188.01743 562.07842 181.17736 561.98242 174.19336 L 561.98047 174.19336 C 561.93247 157.69336 562.82002 140.9997 559.91602 124.5957 C 558.83602 112.6917 555.98031 101.06385 553.82031 89.339844 C 550.40031 77.063844 545.99572 65.161281 542.01172 53.113281 C 540.18772 47.953281 538.54409 42.611625 535.49609 38.015625 C 379.96409 37.823625 224.43156 38.063922 68.851562 37.919922 z M 484.03125 54.144531 C 484.03125 54.144531 494.11066 58.404141 499.22266 63.744141 C 503.25466 67.968141 512.43586 72.936141 515.25586 75.744141 C 518.01586 78.516141 525.84023 88.54875 531.24023 94.96875 C 531.24023 94.96875 532.45183 104.95214 530.82031 123.74414 C 530.82031 123.74414 502.45231 151.72747 494.82031 163.35547 C 494.82031 163.35547 505.22491 164.53204 509.62891 163.72852 C 514.03291 162.93652 521.25661 160.96784 529.22461 161.33984 C 529.22461 161.33984 534.42022 153.37291 538.82422 148.12891 L 546.83984 157.35742 C 546.83984 157.35742 531.23962 184.54913 530.01562 200.95312 C 530.01562 200.95312 517.64491 199.72891 515.62891 202.12891 C 515.62891 202.12891 515.99986 195.37276 515.25586 190.96875 C 515.25586 190.96875 496.45184 189.37234 480.83984 190.54883 C 465.23984 191.72483 447.61095 192.14542 431.62695 193.35742 C 431.62695 193.35742 442.03117 183.74491 448.45117 178.12891 C 454.82317 172.54891 460.82317 166.12853 466.45117 162.14453 C 472.03117 158.16053 475.22386 155.34016 479.25586 152.16016 C 483.23986 148.96816 495.23866 134.5335 505.22266 126.9375 C 505.22266 126.9375 506.8204 118.54816 504.41992 110.16016 C 502.03192 101.72416 495.61095 97.728531 485.62695 90.144531 C 475.64295 82.548531 462.42 82.548516 456 85.728516 C 456 85.728516 452.43466 98.952136 457.22266 105.74414 C 457.21863 105.74652 446.43331 112.12919 432.41992 122.95117 C 432.41992 122.95117 433.22479 110.53184 434.82031 101.33984 C 436.45231 92.159839 435.24023 88.128906 435.24023 88.128906 C 435.24023 88.128906 438.83858 82.547844 445.64258 77.339844 C 452.43458 72.143844 458.25562 68.952516 461.01562 67.728516 C 463.82362 66.516516 469.64325 60.516531 484.03125 54.144531 z M 235.54688 54.935547 C 241.49887 55.355067 246.98272 57.708891 252.88672 58.212891 C 261.32272 59.017371 269.81791 59.01648 278.25391 58.5 C 283.12591 58.308 287.57834 56.112297 292.40234 55.404297 C 296.57834 57.372297 300.28666 60.227781 304.22266 62.675781 C 303.70618 68.903781 301.02914 74.807703 301.86914 81.095703 C 302.99714 90.515703 304.96575 99.984448 309.09375 108.56445 C 315.46575 121.30845 323.15722 133.45177 328.44922 146.75977 C 335.48122 163.64377 343.64212 180.09691 349.07812 197.62891 C 351.75412 205.87291 352.17427 215.53259 358.82227 221.80859 C 364.91827 227.1606 371.95103 231.37305 378.70703 235.87305 C 381.51503 237.84106 384.56137 239.95252 386.10938 243.22852 C 385.68986 247.87253 383.30175 251.95155 381.09375 255.93555 C 370.40175 254.75955 360.32205 250.49984 349.49805 249.83984 C 332.81805 247.59584 315.51473 247.45191 299.30273 252.41992 C 293.43473 254.20792 288.46583 257.952 283.17383 261 C 278.81783 256.548 274.40273 252.14408 270.80273 247.08008 C 278.95073 239.01608 290.15791 233.34052 294.75391 222.22852 C 298.12591 212.80852 292.82205 203.38861 289.49805 194.72461 C 283.03005 176.85661 273.09405 160.54898 265.49805 143.20898 C 263.95005 140.48498 262.82227 137.06416 259.82227 135.66016 C 255.70627 136.21216 251.81775 139.92136 247.59375 138.19336 C 243.23775 135.37336 239.99753 131.16089 236.76953 127.21289 C 234.09353 124.12889 232.7865 119.62821 234.5625 115.82422 C 237.0465 111.98422 240.83714 109.21192 243.36914 105.41992 C 246.60914 100.69193 249.80122 95.855625 251.94922 90.515625 C 253.02922 88.127625 251.52943 85.644531 249.75391 84.144531 C 242.57791 78.324531 233.67413 75.372891 226.07812 70.212891 C 229.12613 65.016891 232.45087 59.999547 235.54688 54.935547 z M 416.85547 56.4375 C 416.33995 73.3575 417.04792 90.324136 415.91992 107.24414 C 415.73944 123.79214 416.67455 145.59653 416.43359 162.14453 C 416.67359 165.04853 414.70627 168.79319 412.82227 170.5332 C 406.12627 176.34119 400.49827 180.93651 394.82227 187.72852 C 393.46627 189.51651 387.65858 194.43704 385.64258 195.37305 C 387.14258 164.80905 387.83815 128.29251 386.01367 97.728516 C 385.96567 96.096516 387.04666 92.857125 385.22266 92.953125 C 377.90266 92.340645 366.51391 94.033527 359.25391 93.373047 C 358.96591 90.001047 358.64275 85.128141 358.82227 81.744141 C 365.01427 77.244141 376.1745 73.969344 383.0625 70.777344 C 394.3545 66.097344 405.23947 60.3255 416.85547 56.4375 z M 104.38867 59.839844 C 110.71342 59.901719 117.03127 60.9735 123.32227 60.9375 C 136.96627 61.30902 150.61103 60.888219 164.20703 61.824219 C 165.32303 71.112219 170.2548 79.309203 175.9668 86.533203 C 186.1908 100.30921 192.93586 116.48567 204.75586 129.09766 C 206.38786 130.54966 208.07992 132.46845 210.41992 132.56445 C 214.22392 131.29244 217.40355 128.43651 221.43555 127.72852 C 226.12755 128.11252 229.07895 132.46845 232.12695 135.56445 C 235.17495 139.30845 239.85548 143.34136 238.27148 148.69336 C 236.38748 154.03337 231.19155 157.72884 230.43555 163.54883 C 229.35555 172.87284 230.01573 182.53381 233.53125 191.3418 C 239.43525 206.5818 245.57909 222.00059 247.87109 238.30859 C 242.90309 241.03259 237.324 242.6766 232.5 245.80859 C 221.58 252.88859 213.04748 263.0643 206.77148 274.4043 C 201.09548 271.9203 195.4197 269.2923 190.5957 265.4043 C 189.6597 263.3403 190.35464 260.90498 190.30664 258.70898 C 191.57864 244.26098 188.62634 229.82567 184.40234 216.09766 C 180.23834 202.87366 176.53066 189.42171 170.72266 176.76172 C 163.30666 159.22972 155.20709 141.61349 142.87109 126.9375 C 140.33909 124.7295 137.3037 119.80973 133.5957 122.67773 C 128.9997 126.88973 128.95042 134.38821 123.98242 138.32422 C 117.61042 140.11221 111.98288 135.84088 106.54688 133.21289 C 102.80288 131.24488 97.354422 128.62987 98.482422 123.42188 C 101.06242 112.96988 106.73834 103.50001 109.40234 93 C 109.59434 89.724 111.09562 84.469578 107.01562 83.017578 C 101.48363 80.245578 95.014422 80.112375 89.482422 77.484375 C 87.190422 76.308375 86.999172 73.3575 88.451172 71.4375 C 91.223172 67.4055 94.0785 63.145359 98.0625 60.193359 C 100.1715 59.911359 102.28042 59.819219 104.38867 59.839844 z "
 /></svg>
